src/assets/barn2.svg

<?xml version="1.0" encoding="UTF-8"?>
<svg width="63px" height="90px" viewBox="0 0 63 90" version="1.1" xmlns="http://www.w3.org/2000/svg" xmlns:xlink="http://www.w3.org/1999/xlink">
    <!-- Generator: Sketch 54.1 (76490) - https://sketchapp.com -->
    <title>mennesker/barn/ spedbarn 0-1 år/ kropp copy 2</title>
    <desc>Created with Sketch.</desc>
    <defs>
        <path d="M44,14.5399557 L44,34 L0,34 L0,14.5399557 C0,8.97279753 7.18760197,2.61722073 12,0 C12,0 32,0 32,0 C36.8561247,2.66318564 44,9.03696924 44,14.5399557 Z" id="path-1"></path>
    </defs>
    <g id="Page-1-(med-SP-og-BT)" stroke="none" stroke-width="1" fill="none" fill-rule="evenodd">
        <g id="steg-7-A-barnetilsyn" transform="translate(-459.000000, -1196.000000)">
            <g id="mennesker/barn/-spedbarn-0-1-år/-kropp" transform="translate(459.000000, 1196.000000)">
                <g id="Group">
                    <g id="mennesker/X⚙️/⚙️-kropp/-barn/-blank-" transform="translate(9.692308, 55.945946)">
                        <g id="Group">
                            <g id="+20/-Blå">
                                <mask id="mask-2" fill="white">
                                    <use xlink:href="#path-1"></use>
                                </mask>
                                <use id="Combined-Shape" fill="#D8A25D" xlink:href="#path-1"></use>
                                <g id="NAV-Brand/farge/-Fokus-oransje/+20" mask="url(#mask-2)" fill="#D8A25C">
                                    <g transform="translate(-82.260870, -105.777778)" id="Fill-46">
                                        <polygon points="0 227 230 227 230 0 0 0"></polygon>
                                    </g>
                                </g>
                            </g>
                        </g>
                    </g>
                    <path d="M2.47826101,27.3760268 C3.4108761,12.0998326 16.0478391,0 31.5,0 C46.9521609,0 59.5891239,12.0998326 60.521739,27.3760268 C62.0006357,28.2090171 63,29.7981618 63,31.6216216 L63,36.4864865 C63,39.1732772 60.830303,41.3513514 58.1538462,41.3513514 C58.0830283,41.3513514 58.0125652,41.3498265 57.9424877,41.3468076 C54.6747611,48.4973069 48.6135574,54.0938235 41.161422,56.7283968 C40.7644715,61.7361049 36.5905343,65.6756757 31.5,65.6756757 C26.4094657,65.6756757 22.2355285,61.7361049 21.838578,56.7283968 C14.3864426,54.0938235 8.32523891,48.4973069 5.05751232,41.3468076 C4.98743482,41.3498265 4.91697172,41.3513514 4.84615385,41.3513514 C2.16969698,41.3513514 3.27771433e-16,39.1732772 0,36.4864865 L0,31.6216216 C-2.22450546e-16,29.7981618 0.999364313,28.2090171 2.47826101,27.3760268 Z" id="hode" fill="#E7E5E2"></path>
                    <g id="Spedbarn-hår" transform="translate(21.807692, 0.000000)" fill="#78706A" fill-rule="nonzero">
                        <path d="M6.66289836,2.91851433 C7.14310567,2.67768675 7.72620811,2.87084024 7.9652941,3.34993472 C8.2043801,3.8290292 8.00891265,4.41264134 7.52870534,4.65346892 C6.93044283,4.95350207 6.83618328,5.26762702 6.83313684,6.85712093 C6.82996743,8.51077121 5.93942505,9.69700715 4.32055268,10.2394643 C3.81135059,10.4100894 3.26176701,10.1363118 3.0930234,9.62796497 C2.92427979,9.11961813 3.20027591,8.5692026 3.709478,8.39857748 C4.54832951,8.11749235 4.88900316,7.66370224 4.89054193,6.86084263 C4.89490719,4.58325263 5.16974467,3.66734214 6.66289836,2.91851433 Z" id="Path-5" transform="translate(5.555384, 6.552533) rotate(-48.000000) translate(-5.555384, -6.552533) "></path>
                        <path d="M10.7708025,2.88363997 C11.2502843,2.64266374 11.832678,2.83628493 12.0716153,3.31610501 C12.3105527,3.79592508 12.1155529,4.38024593 11.6360712,4.62122216 C11.0387127,4.92144049 10.9446903,5.23595084 10.9422121,6.82756547 C10.9396339,8.48342206 10.0506996,9.67092099 8.43417772,10.2135196 C7.92571495,10.3841892 7.37676678,10.1098484 7.20806767,9.60076218 C7.03936856,9.09167602 7.31480142,8.54062508 7.82326418,8.36995546 C8.66089774,8.08879702 9.0009562,7.63452376 9.00220795,6.83059297 C9.00575897,4.54996419 9.279905,3.63292998 10.7708025,2.88363997 Z" id="Path-5-Copy" transform="translate(9.666054, 6.522110) rotate(-27.000000) translate(-9.666054, -6.522110) "></path>
                        <path d="M14.877203,2.85173526 C15.3561178,2.61105317 15.9382904,2.80537237 16.1775219,3.28575934 C16.4167534,3.76614632 16.2224516,4.35068829 15.7435368,4.59137038 C15.1468845,4.89122227 15.0532302,5.2058622 15.0522836,6.79858961 C15.0512988,8.45560389 14.1641276,9.64307652 12.5492576,10.1844944 C12.0413144,10.3547926 11.4924864,10.0797295 11.3234159,9.57012378 C11.1543454,9.06051802 11.429056,8.50934694 11.9369992,8.3390487 C12.7737768,8.05850207 13.1131608,7.60423887 13.1136389,6.79974601 C13.1149953,4.51752272 13.3880682,3.60011069 14.877203,2.85173526 Z" id="Path-5-Copy-2" transform="translate(13.776724, 6.491688) rotate(-9.000000) translate(-13.776724, -6.491688) "></path>
                    </g>
                    <g id="mennesker/X⚙️/⚙️-ansikt-barn/-smil-2" transform="translate(12.115385, 21.891892)">
                        <g id="Group" transform="translate(0.000000, 2.000000)">
                            <path d="M11.7,17.9993147 C11.7,21.3135351 9.0814411,24 5.8513152,24 C2.6198741,24 0,21.3135351 0,17.9993147 C0,14.6864649 2.6198741,12 5.8513152,12 C9.0814411,12 11.7,14.6864649 11.7,17.9993147" id="Fill-35-Copy-2" fill="#E8CCC8"></path>
                            <path d="M17.5203896,26.9127907 C16.241687,26.9010441 15.1462544,26.0594711 14.7325008,24.8949789 L14.5293287,20.90871 L20.4022293,20.9626605 L20.2710736,24.9458581 C19.878472,26.1029429 18.7985718,26.9245325 17.5203896,26.9127907 Z" id="Combined-Shape" fill="#FA96A0" transform="translate(17.465779, 23.910812) rotate(23.000000) translate(-17.465779, -23.910812) "></path>
                            <path d="M39,17.9993147 C39,21.3135351 36.3814411,24 33.1513152,24 C29.9198741,24 27.3,21.3135351 27.3,17.9993147 C27.3,14.6864649 29.9198741,12 33.1513152,12 C36.3814411,12 39,14.6864649 39,17.9993147" id="Fill-35-Copy-3" fill="#E8CCC8"></path>
                            <path d="M21.1066734,9.06737343 C20.579706,9.18095389 20.0627413,8.83488396 19.9520004,8.29440461 C19.8412594,7.75392527 20.1786776,7.22370503 20.705645,7.11012458 C22.0167367,6.82753706 23.1128511,7.0449554 23.7163106,8.08313796 C24.8886732,10.1029163 24.4802182,12.430456 22.6316128,14.0426836 C21.557106,14.9794447 20.0489592,15.3156423 18.9953889,14.6620403 C18.5346389,14.3762054 18.3870493,13.7614016 18.6657383,13.2888374 C18.9444273,12.8162733 19.543861,12.6648993 20.0046111,12.9507342 C20.2352431,13.093811 20.8719459,12.9518766 21.3685522,12.5189325 C22.500605,11.5316332 22.7206727,10.2775993 22.0410644,9.10675117 C21.9771204,8.99674299 21.6944793,8.94068008 21.1066734,9.06737343 Z" id="Stroke-99-Copy" fill="#59514B" fill-rule="nonzero"></path>
                            <path d="M26.3541111,2.24253563 C26.2235111,1.70674072 26.5411277,1.16380623 27.0635278,1.0298575 C27.5859278,0.895908773 28.1152889,1.22166947 28.2458889,1.75746437 C28.7970368,4.01858401 29.7539174,5 31.2,5 C32.6460826,5 33.6029632,4.01858401 34.1541111,1.75746437 C34.2847111,1.22166947 34.8140722,0.895908773 35.3364722,1.0298575 C35.8588723,1.16380623 36.1764889,1.70674072 36.0458889,2.24253563 C35.2970368,5.31474932 33.6539174,7 31.2,7 C28.7460826,7 27.1029632,5.31474932 26.3541111,2.24253563 Z" id="Path-4-Copy-4" fill="#635E59" fill-rule="nonzero" transform="translate(31.200000, 3.999882) scale(1, -1) translate(-31.200000, -3.999882) "></path>
                            <path d="M8.78860328,7.99327395 C6.10107009,8.17379672 5.34885796,4.67988138 6.15864682,2.40163834 C6.31094656,1.96746966 7.20059991,0 8.77560209,0 C10.3487469,0 11.0433823,1.07628131 11.1399627,1.26137428 C12.2970692,3.48477495 11.7305885,7.79904059 8.78860328,7.99327395" id="Fill-95-Copy-3" fill="#635E59"></path>
                            <path d="M14.7279335,20.4472136 C14.487119,19.9532351 14.6823377,19.3525621 15.1639667,19.1055728 C15.6455958,18.8585836 16.231252,19.0588079 16.4720665,19.5527864 C16.939711,20.5120572 17.8911995,21 19.5,21 C21.1088005,21 22.060289,20.5120572 22.5279335,19.5527864 C22.768748,19.0588079 23.3544042,18.8585836 23.8360333,19.1055728 C24.3176623,19.3525621 24.512881,19.9532351 24.2720665,20.4472136 C23.439711,22.1546095 21.7911995,23 19.5,23 C17.2088005,23 15.560289,22.1546095 14.7279335,20.4472136 Z" id="Path-4-Copy-2" fill="#59514B" fill-rule="nonzero" transform="translate(19.500000, 20.999890) scale(1, -1) rotate(-180.000000) translate(-19.500000, -20.999890) "></path>
                        </g>
                    </g>
                </g>
            </g>
        </g>
    </g>
</svg>

<?xml version="1.0" encoding="UTF-8"?>
<svg version="1.1" viewBox="0 0 63 90" xmlns="http://www.w3.org/2000/svg" xmlns:xlink="http://www.w3.org/1999/xlink">
<title>mennesker/barn/ spedbarn 0-1 år/ kropp copy 2</title>
<desc>Created with Sketch.</desc>
<defs>
<path id="a" d="m44 14.54v19.46h-44v-19.46c0-5.5672 7.1876-11.923 12-14.54h20c4.8561 2.6632 12 9.037 12 14.54z"/>
</defs>
<g fill="none" fill-rule="evenodd">
<g transform="translate(-459 -1196)">
<g transform="translate(459 1196)">
<g id="Group">
<g transform="translate(9.6923 55.946)">
<g id="d">
<mask id="b" fill="white">
<use xlink:href="#a"/>
</mask>
<use id="c" fill="#D8A25D" xlink:href="#a"/>
<g fill="#D8A25C" mask="url(#b)">
<g transform="translate(-82.261 -105.78)">
<polygon points="0 227 230 227 230 0 0 0"/>
</g>
</g>
</g>
</g>
<path d="m2.4783 27.376c0.93262-15.276 13.57-27.376 29.022-27.376s28.089 12.1 29.022 27.376c1.4789 0.83299 2.4783 2.4221 2.4783 4.2456v4.8649c0 2.6868-2.1697 4.8649-4.8462 4.8649-0.070818 0-0.14128-0.0015249-0.21136-0.0045438-3.2677 7.1505-9.3289 12.747-16.781 15.382-0.39695 5.0077-4.5709 8.9473-9.6614 8.9473s-9.2645-3.9396-9.6614-8.9473c-7.4521-2.6346-13.513-8.2311-16.781-15.382-0.070078 0.0030189-0.14054 0.0045438-0.21136 0.0045438-2.6765 0-4.8462-2.1781-4.8462-4.8649v-4.8649c-2.2245e-16 -1.8235 0.99936-3.4126 2.4783-4.2456z" fill="#E7E5E2"/>
<g transform="translate(21.808)" fill="#78706A" fill-rule="nonzero">
<path transform="translate(5.5554 6.5525) rotate(-48) translate(-5.5554 -6.5525)" d="m6.6629 2.9185c0.48021-0.24083 1.0633-0.047674 1.3024 0.43142 0.23909 0.47909 0.043619 1.0627-0.43659 1.3035-0.59826 0.30003-0.69252 0.61416-0.69557 2.2037-0.0031694 1.6537-0.89371 2.8399-2.5126 3.3823-0.5092 0.17063-1.0588-0.10315-1.2275-0.6115-0.16874-0.50835 0.10725-1.0588 0.61645-1.2294 0.83885-0.28109 1.1795-0.73488 1.1811-1.5377 0.0043653-2.2776 0.2792-3.1935 1.7724-3.9423z"/>
<path transform="translate(9.6661 6.5221) rotate(-27) translate(-9.6661 -6.5221)" d="m10.771 2.8836c0.47948-0.24098 1.0619-0.047355 1.3008 0.43247 0.23894 0.47982 0.043938 1.0641-0.43554 1.3051-0.59736 0.30022-0.69138 0.61473-0.69386 2.2063-0.0025782 1.6559-0.89151 2.8434-2.508 3.386-0.50846 0.17067-1.0574-0.10367-1.2261-0.61276-0.1687-0.50909 0.10673-1.0601 0.6152-1.2308 0.83763-0.28116 1.1777-0.73543 1.1789-1.5394 0.003551-2.2806 0.2777-3.1977 1.7686-3.947z"/>
<path transform="translate(13.777 6.4917) rotate(-9) translate(-13.777 -6.4917)" d="m14.877 2.8517c0.47891-0.24068 1.0611-0.046363 1.3003 0.43402 0.23923 0.48039 0.04493 1.0649-0.43399 1.3056-0.59665 0.29985-0.69031 0.61449-0.69125 2.2072-9.848e-4 1.657-0.88816 2.8445-2.503 3.3859-0.50794 0.1703-1.0568-0.10476-1.2258-0.61437-0.16907-0.50961 0.10564-1.0608 0.61358-1.2311 0.83678-0.28055 1.1762-0.73481 1.1766-1.5393 0.0013564-2.2822 0.27443-3.1996 1.7636-3.948z"/>
</g>
<g transform="translate(12.115 21.892)">
<g transform="translate(0 2)">
<path d="m11.7 17.999c0 3.3142-2.6186 6.0007-5.8487 6.0007-3.2314 0-5.8513-2.6865-5.8513-6.0007 0-3.3128 2.6199-5.9993 5.8513-5.9993 3.2301 0 5.8487 2.6865 5.8487 5.9993" fill="#E8CCC8"/>
<path transform="translate(17.466 23.911) rotate(23) translate(-17.466 -23.911)" d="m17.52 26.913c-1.2787-0.011747-2.3741-0.85332-2.7879-2.0178l-0.20317-3.9863 5.8729 0.05395-0.13116 3.9832c-0.3926 1.1571-1.4725 1.9787-2.7507 1.9669z" fill="#FA96A0"/>
<path d="m39 17.999c0 3.3142-2.6186 6.0007-5.8487 6.0007-3.2314 0-5.8513-2.6865-5.8513-6.0007 0-3.3128 2.6199-5.9993 5.8513-5.9993 3.2301 0 5.8487 2.6865 5.8487 5.9993" fill="#E8CCC8"/>
<path d="m21.107 9.0674c-0.52697 0.11358-1.0439-0.23249-1.1547-0.77297-0.11074-0.54048 0.22668-1.0707 0.75364-1.1843 1.3111-0.28259 2.4072-0.065169 3.0107 0.97301 1.1724 2.0198 0.76391 4.3473-1.0847 5.9595-1.0745 0.93676-2.5827 1.273-3.6362 0.61936-0.46075-0.28583-0.60834-0.90064-0.32965-1.3732 0.27869-0.47256 0.87812-0.62394 1.3389-0.3381 0.23063 0.14308 0.86733 0.0011424 1.3639-0.4318 1.1321-0.9873 1.3521-2.2413 0.67251-3.4122-0.063944-0.11001-0.34659-0.16607-0.93439-0.039378z" fill="#59514B" fill-rule="nonzero"/>
<path transform="translate(31.2 3.9999) scale(1 -1) translate(-31.2 -3.9999)" d="m26.354 2.2425c-0.1306-0.53579 0.18702-1.0787 0.70942-1.2127 0.5224-0.13395 1.0518 0.19181 1.1824 0.72761 0.55115 2.2611 1.508 3.2425 2.9541 3.2425s2.403-0.98142 2.9541-3.2425c0.1306-0.53579 0.65996-0.86156 1.1824-0.72761 0.5224 0.13395 0.84002 0.67688 0.70942 1.2127-0.74885 3.0722-2.392 4.7575-4.8459 4.7575s-4.097-1.6853-4.8459-4.7575z" fill="#635E59" fill-rule="nonzero"/>
<path d="m8.7886 7.9933c-2.6875 0.18052-3.4397-3.3134-2.63-5.5916 0.1523-0.43417 1.042-2.4016 2.617-2.4016 1.5731 0 2.2678 1.0763 2.3644 1.2614 1.1571 2.2234 0.59063 6.5377-2.3514 6.7319" fill="#635E59"/>
<path transform="translate(19.5 21) scale(1 -1) rotate(180) translate(-19.5 -21)" d="m14.728 20.447c-0.24081-0.49398-0.045596-1.0947 0.43603-1.3416 0.48163-0.24699 1.0673-0.046765 1.3081 0.44721 0.46764 0.95927 1.4191 1.4472 3.0279 1.4472s2.5603-0.48794 3.0279-1.4472c0.24081-0.49398 0.82647-0.6942 1.3081-0.44721 0.48163 0.24699 0.67685 0.84766 0.43603 1.3416-0.83236 1.7074-2.4809 2.5528-4.7721 2.5528s-3.9397-0.84539-4.7721-2.5528z" fill="#59514B" fill-rule="nonzero"/>
</g>
</g>
</g>
</g>
</g>
</g>
</svg>
